X: 21523
M: 6/8
L: 1/8
K: C
!segno![|\
!ff!E |\
EEE E^F^G | AAA ABc | ddd de^f | g3- g^fg |\
b2a- age | e2d- d^cd | ^f2e- eca | gGG GGG !segno! |]
!p!d |\
dzg dzg | dzg bzg | ^gza gza | c'ba g^fe |\
dzg dzg | dzg bzg | ^gza gza | c'e^f g2z !segno!|]



